icons/lines/element-four.svg

<svg xmlns="http://www.w3.org/2000/svg" width="24" height="24" viewBox="0 0 24 24" fill="none" stroke="currentColor" stroke-width="2" stroke-linecap="round" stroke-linejoin="round">
  <path d="M10.5 19.9c0 1.5-.64 2.1-2.23 2.1H4.23C2.64 22 2 21.4 2 19.9v-6.8c0-1.5.64-2.1 2.23-2.1h4.04c1.59 0 2.23.6 2.23 2.1z" />
  <path d="M10.5 5.9c0 1.5-.64 2.1-2.23 2.1H4.23C2.64 8 2 7.4 2 5.9V4.1C2 2.6 2.64 2 4.23 2h4.04c1.59 0 2.23.6 2.23 2.1z" />
  <path d="M22 18.1c0-1.5-.64-2.1-2.23-2.1h-4.04c-1.59 0-2.23.6-2.23 2.1v1.8c0 1.5.64 2.1 2.23 2.1h4.04c1.59 0 2.23-.6 2.23-2.1z" />
  <path d="M22 4.1c0-1.5-.64-2.1-2.23-2.1h-4.04c-1.59 0-2.23.6-2.23 2.1v6.8c0 1.5.64 2.1 2.23 2.1h4.04c1.59 0 2.23-.6 2.23-2.1z" />
</svg>

<svg xmlns="http://www.w3.org/2000/svg" width="24" height="24" viewBox="0 0 24 24" fill="none" stroke="currentColor" stroke-width="2" stroke-linecap="round" stroke-linejoin="round" >
  <path d="M22 10.9V4.1C22 2.6 21.36 2 19.77 2H15.73C14.14 2 13.5 2.6 13.5 4.1V10.9C13.5 12.4 14.14 13 15.73 13H19.77C21.36 13 22 12.4 22 10.9Z"/>
  <path d="M22 19.9V18.1C22 16.6 21.36 16 19.77 16H15.73C14.14 16 13.5 16.6 13.5 18.1V19.9C13.5 21.4 14.14 22 15.73 22H19.77C21.36 22 22 21.4 22 19.9Z"/>
  <path d="M10.5 13.1V19.9C10.5 21.4 9.86 22 8.27 22H4.23C2.64 22 2 21.4 2 19.9V13.1C2 11.6 2.64 11 4.23 11H8.27C9.86 11 10.5 11.6 10.5 13.1Z"/>
  <path d="M10.5 4.1V5.9C10.5 7.4 9.86 8 8.27 8H4.23C2.64 8 2 7.4 2 5.9V4.1C2 2.6 2.64 2 4.23 2H8.27C9.86 2 10.5 2.6 10.5 4.1Z"/>
  </svg>
